X: 4211
M: 6/8
L: 1/8
K: G
|:\
|:\
d2B d2B | dcB ABc | d2B d2B | ABA FED |\
d2B d2B | dcB ABc | dcB AGF | GAG FED :|


